X:1
T:Parallelograms
T:Tom Brier https://musescore.com/user/19465036/scores/5186803 Transribed from: Album: "Blue Sahara", Track 2: "Parallelograms"
T:Parallelograms
C:Tom Brier
%%score { ( 1 3 4 ) | 2 }
L:1/8
Q:1/2=85
M:4/4
K:Eb
V:1 treble nm="Piano" snm="Pno."
V:3 treble 
V:4 treble 
V:2 bass 
V:1
"^Moderato""^Swing 8ths." !>![G,B,E][^F,=A,D][G,B,E]!>![B,EG]- [B,EG][A,D^F] !>![B,EG]2 | %1
 !>![=B,DG=B][^A,^C^F^A][B,DGB]!>![DGBd]- [DGBd][CFA^c] !>![DGBd]2 | %2
 !>![EGBe][Dd][EGBe]!>![GBeg]- [GBeg][^F^f] !>![GBeg]2 | %3
 !>![G=Bdg][^F^f][GBdg]!>![Bdg=b]- [Bdgb][^A^a]!>![Bdgb]c- | %4
!mp! [ceac']A-[Acea]B- [Begb]G-[GBeg]A- | [Acfa]F-[FAcf]G- [GBeg]E-[EGBe]D- | %6
!<(! [DGBd][Bb][Gg][ce=ac']- [ceac'][ee'][cc']d- | [dgbd']gb[dabd']-!<)! [dabd']4 | %8
 !>![G,B,E][^F,=A,D][G,B,E]!>![B,EG]- [B,EG][A,D^F] !>![B,EG]2 | %9
 !>![=B,DG=B][^A,^C^F^A][B,DGB]!>![DGBd]- [DGBd][CFA^c] !>![DGBd]2 | %10
 !>![EGBe][Dd][EGBe]!>![GBeg]- [GBeg][^F^f] !>![GBeg]2 | %11
 !>![G=Bdg][^F^f][GBdg]!>![Bdg=b]- [Bdgb][^A^a]!>![Bdgb]c- | %12
!mp! [ceac']A-[Acea]B- [Begb]G-[GBeg]A- | [Acfa]F-[FAcf]G- [Gc=eg]=E-[EGce]F- | %14
!<(! [FAcf][Aa][cc'][Bdfb]- [Bdfb] [FABd]2!<)! [EGBe]- |1 [EGBe]B[=Ec][DFAB]- [DFAB] [Bdfb]3 :|2 %16
 [EGBe]2 [Gg]2 [cc']2 [Gg][Gceg]- |: [Gceg]2!8va(! (!>![e'g']c' g)!8va)!(!>![eg]cG-) | %18
 [GBdg]2!8va(! (!>![d'g']b g)!8va)!(!>![dg]BG) | [FGBf][Ee][Dd][EGBe]- [EGBe]4 | %20
 z2 [Gg]2 [cc']2 [Gg]2 | [FAcf]2!8va(! (!>![d'f']c' a)!8va)!(!>![df]cA) | %22
 [G=Beg]2!8va(! (!>![e'g']d' =b)!8va)!(!>![eg]dB) | [FGcf][Ee][Dd][EGce]- [EGce]4 | %24
!<(! z2 [GB_dg]2 [FBdf]2!<)! [GBdg]2 |!mf! [FAcf][Ee][Gg][FAcf]- [FAcf][Ee][Gg][F_c_df]- | %26
 [Fcdf]8 | [GBeg][Bb][Gg][F=Bdf]- [FBdf][Gg][Ff][EGce]- | [EGce]8 | %29
 [=Aeg]f [Aeg]2 [dac']2 [c_gb]2 | [=Aeg]e[Af]c e [Aef]2 e |!>(! [Adg]e [Adf]2 [E=Ac]2!>)! [_DGB]2 | %32
 .[DAB]2 [Gg]2 [cc']2 [Gg][Gceg]- | [Gceg]2!8va(! (!>![e'g']c' g)!8va)!(!>![eg]cG-) | %34
 [GBdg]2!8va(! (!>![d'g']b g)!8va)!(!>![dg]BG) | [FGBf][Ee][Dd][EGBe]- [EGBe]4 | %36
 z2 [Gg]2 [cc']2 [Gg]2 | [FB_df]2!8va(! (!>![_d'f']b g)!8va)!(!>![df]BG) | %38
 [G=Beg]2!8va(! (!>![e'g']=b g)!8va)!(!>![eg]BG) | [FAcf][Ee][Dd][EAce]- [EAce]4 | %40
!<(! z2 [Acfa]2 [G=Bdg]2 [DFBd]2!<)! |!mf! [FGcf][Ee][Dd][EGce]- [EGce][Ff][Gg][ce_gc']- | %42
 [cegc']4 z [d_g=ad']2 e- | [cegc'][Bb][=Af=a][Begb]- [Begb][cc'][dd'][^da=b^d']- | %44
 [dabd']4 z!8va(! [=e^g=b=e']2 ^e'/^f'/ | %45
 [gbe'g'][bb'][gg'][b^c'=e'g'b']- [bc'e'g'b'][=c'c''][gg']f'- | %46
 [ad'f'a']f'[bb'][gbd'g']- [gbd'g']d' [ff']2 | %47
 [egbe']2 (3!>![e'g']bg!8va)! (3!>![^g=b]e=B (3!>![B=e]^G=E |1 E2 [Gg]2 [cc']2 [Gg][Gceg] :|2 %49
 E2 z2 !>![B,DFB]2 z2 ||!mf! !>![G,B,E][^F,=A,D][G,B,E]!>![B,EG]- [B,EG][A,D^F] !>![B,EG]2 | %51
 !>![=B,DG=B][^A,^C^F^A][B,DGB]!>![DGBd]- [DGBd][CFA^c] !>![DGBd]2 | %52
 !>![EGBe][Dd][EGBe]!>![GBeg]- [GBeg][^F^f] !>![GBeg]2 | %53
 !>![G=Bdg][^F^f][GBdg]!>![Bdg=b]- [Bdgb][^A^a]!>![Bdgb]c- | %54
!mp! [ceac']A-[Acea]B- [Begb]G-[GBeg]A- | [Acfa]F-[FAcf]G- [GBeg]E-[EGBe]D- | %56
!<(! [DGBd][Bb][Gg][ce=ac']- [ceac'][ee'][cc']d- | [dgbd']gb[dabd']- [dabd']!<)! [bd'f'b']3 | %58
 !>![G,B,E][^F,=A,D][G,B,E]!>![B,EG]- [B,EG][A,D^F] !>![B,EG]2 | %59
 !>![=B,DG=B][^A,^C^F^A][B,DGB]!>![DGBd]- [DGBd][CFA^c] !>![DGBd]2 | %60
 !>![EGBe][Dd][EGBe]!>![GBeg]- [GBeg][^F^f] !>![GBeg]2 | %61
 !>![G=Bdg][^F^f][GBdg]!>![Bdg=b]- [Bdgb][^A^a]!>![Bdgb]c- | [ceac']a-[Acea]B- [Begb]g-[GBeg]A- | %63
 [Acfa]f-[FAcf]G- [Gc=eg]e-[=EGce]F- | %64
 [FAcf][Aa][cc'][Bdfb]- [Bdfb] [FABd]2 [!courtesy!_EGB!courtesy!_e]- | %65
 [EGBe]2 z2 [egbe']2 (3c^cd |:[K:Ab]!mf! .e[cec']- [cec']/b/a/e/ c[ceb]- [ceb]/a/e/c/ | %67
 A [DB]2 [EAc]- [EAc] [EAe]2 [FA=df]- | [FAdf][ac'][gb][ac'] [gb]=d[fa]B | %69
 [=dg]A[df][=DAc]- [DAc]d[DFAB]g | [df]G[ce][Bd]- [Bd]E[Gc]e | [GB]D[FA][EG]- [EG]A[EGB]=B | %72
 [CEAc]2 (3cde (3abc' (3fga | (3cde (3FGA (3Bce (3cd=d | %74
 e[cec']- [cec']/b/a/e/ c[ceb]- [ceb]/a/e/c/ | A [DB]2 [EAc]- [EAc] [EAe]2 [Gceg]- | %76
 [Gceg]!8va(!g[c'e']a' [=d'g']g[d'f']g' | [gc'e'] [f=b=d']2 [egc']- [egc'] [eg]2!8va)! (3c'/a/f/ | %78
 (3=de=e f[dac']- [dac'] [dab]2 z |!mp! (3=DE=E .F[DAc]- [DAc]F [DAB]2 | %80
!mf! (3ga=a b[fgd'f']- [fgd'f'] [egd'e']2 z |!mp! (3EF^F .G[=FBc]- [FBc]B- [GBe] (3c/d/=d/ | %82
!mf! .e[cec']- [cec']/b/a/e/ c[ceb]- [ceb]/a/e/c/ | A [DB]2 [EAc]- [EAc] [EAe]2 [FA=df]- | %84
 [FAdf][ac'][gb][ac'] [gb]=d[fa]B | [=dg]A[df][=DAc]- [DAc]d[FAB]g | [df]G[ce][Bd]- [Bd]E[Gc]e | %87
 [GB]D[FA][EG]- [EG]A[FB]d | [=EGBc]2 (3c=d^d =egag | [=egbc']4 z [=Beg=b]2 [cc'] | %90
!f! .[Bdfb][Aa][cc'][Bdfb]- [Bdfb] [Adfa]2 f | .[Bd_fb][Aa][cc'][Bdfb]- [Bdfb] [Adfa]2 f | %92
 .[Acf]eg[Acf]- [Acf] [Ace]2 c | .[=Acf]eg[Acf]- [Acf] [Ace]2 c | %94
 [Dd] [Ee]2 [FAdf]- [FAdf] [cfc']2 b | [dd']3 [cec']- [cc']2 [Bdb]2 |1 %96
!mf! [Aca]2 !>![ac']e c!>![_fa]dA- | [Aca]Gf[GBde]- [GBde]F E (3c/d/=d/ :|2 %98
!mf! [Aca]2!8va(! !>![a'c'']e' c'!>!_f'd'a- | !>![ac']2!8va)! !>![ac']e c!>!_fdA- | %100
 !>![Aca]2 !>![Ac]E C!>!_FDA,- | [A,CEA]4[I:staff +1] !fermata![C,E,A,]4 |] %102
V:2
!mf! !>![E,,E,][D,,D,][E,,E,]!>![G,,G,]- [G,,G,][^F,,^F,] !>![G,,G,]2 | %1
 !>![G,,G,][^F,,^F,][G,,G,]!>![=B,,=B,]- [B,,B,][^A,,^A,] !>![B,,B,]2 | %2
 !>![B,,B,][=A,,=A,][B,,B,]!>![E,E]- [E,E][D,D] !>![E,E]2 | %3
 !>![D,D][^C,^C][D,D]!>![G,G]- [G,G][^F,^F] !>![G,G]2 | [A,A]2 [F,F]2 [G,G]2 [E,E]2 | %5
 [F,F]2 [D,D]2 [E,E]2 [=A,,=A,]2 | [B,,B,]2 [D,D]2 [C,C]2 [D,,D,]2 | %7
 [G,,G,]2 [_G,,_G,][F,,F,]- [F,,F,][B,,,B,,][C,,C,][D,,D,] | %8
!mf! !>![E,,E,][D,,D,][E,,E,]!>![G,,G,]- [G,,G,][^F,,^F,] !>![G,,G,]2 | %9
 !>![G,,G,][^F,,^F,][G,,G,]!>![=B,,=B,]- [B,,B,][^A,,^A,] !>![B,,B,]2 | %10
 !>![B,,B,][=A,,=A,][B,,B,]!>![E,E]- [E,E][D,D] !>![E,E]2 | %11
 !>![D,D][^C,^C][D,D]!>![G,G]- [G,G][^F,^F] !>![G,G]2 | [A,A]2 [F,F]2 [G,G]2 [E,E]2 | %13
 [F,F]2 [D,D]2 [=E,=E]2 [C,C]2 | [A,,A,]2 [F,,F,]2 [D,,D,]2 [B,,,B,,]2 |1 %15
 [E,,E,]2 [=E,,=E,][F,,F,]- [F,,F,][B,,,B,,][C,,C,][D,,D,] :|2 [E,,E,]2!mp! G,2{/A,B,} C2 G,2 |: %17
!ped! [F,,E,]2!8va(! [Fe]2- [Fe]!8va)! [F,E]- [F,E]2!ped-up! | %18
!ped! [B,,,B,,]2!8va(! [Bb]2- [Bb]!8va)! [B,B]- [B,B]2!ped-up! | [E,,B,,E,]2 (B,,C, E,F,G,B, | %20
 C2) B,2 E2 B,2 |!ped! [A,,F,]2!8va(! [Af]2- [Af]!8va)! [A,F]- [A,F]2!ped-up! | %22
!ped! [G,,F,]2!8va(! [Gf]2- [Gf]!8va)! [G,F]- [G,F]2!ped-up! | [C,,G,,C,]2 (G,,C, D,E,G,C | %24
 B,) E,,-[E,,B,,E,]E,,- [E,,B,,F,]E,,-[E,,B,,G,]A,,- | [A,,E,C]2 .[E,A,C]2 [E,,E,]2 .[E,A,C]2 | %26
 (3(_D,,A,,_C, _D,F, E,D,B,,A,,) | [E,,E,]2 .[G,B,E]D,,- [D,,F,]2 .[G,=B,D]2 | %28
 (3(C,,G,,C, D,E, G,F,E,C,) | [F,,F,]2 [=A,E]2 [B,F]2 [A,E]2 | [F,C]2 [E,E]2 [C,C]2 [F,,F,]2 | %31
 [B,,B,]2 .[B,DF]2 [F,C]2 [E,B,]2 | .[D,B,]2!mp! G,2{/A,B,} C2 G,2 | %33
!ped! [F,,E,]2!8va(! [Fe]2- [Fe]!8va)! [F,E]- [F,E]2!ped-up! | %34
!ped! [B,,,B,,]2!8va(! [Bb]2- [Bb]!8va)! [B,B]- [B,B]2!ped-up! | [E,,B,,E,]2 (B,,C, E,F,G,B, | %36
 C2) B,2 E2 B,2 |!ped! [B,,F,B,]2!8va(! [Bb]2- [Bb]!8va)! [B,B]- [B,B]2!ped-up! | %38
!ped! [E,,_D,]2!8va(! [Ee]2- [Ee]!8va)! [E,E]- [E,E]2!ped-up! | [A,,E,A,]2 (E,F, A,B,CF | %40
 E) F,,-[F,,C,A,]G,,- [G,,D,=B,]=B,,-[B,,G,D]C,- | [C,G,C]2 .[E,G,C]2 [C,,C,]2 .[E,G,C]2 | %42
 (3(=A,,C,E, (3_G,=A,C !>!E2) [A,CE_G]E,,- | [E,,B,,G,]2 .[G,B,E]2 [B,,,B,,]2 .[G,B,E]2 | %44
 (3(=B,,,^F,,=A,, (3=B,,^D,^F, !>!=B,)^G,- [G,B,=E]2 | %45
 [B,,,B,,]2 .[G,B,E]=E,,- [E,,G,]2 .[G,B,_D=E]F,,- | [F,,C,A,]2 .[A,CF]B,,,- [B,,,D,]2 .[A,B,DF]2 | %47
 [E,,B,,E,]2 [EB]2 [A,E]2 [_D,A,]2 |1 [E,B,]2!mp! G,2{/A,B,} C2 G,2 :|2 %49
 [E,B,]2 z2 !>![B,,F,B,]2 z2 || !>![E,,E,][D,,D,][E,,E,]!>![G,,G,]- [G,,G,][^F,,^F,] !>![G,,G,]2 | %51
 !>![G,,G,][^F,,^F,][G,,G,]!>![=B,,=B,]- [B,,B,][^A,,^A,] !>![B,,B,]2 | %52
 !>![B,,B,][=A,,=A,][B,,B,]!>![E,E]- [E,E][D,D] !>![E,E]2 | %53
 !>![D,D][^C,^C][D,D]!>![G,G]- [G,G][^F,^F]!>![G,G]A,- | [A,A]F,-[F,F]G,- [G,G]E,-[E,E]F,- | %55
 [F,F]D,-[D,D]E,- [E,E]=A,,-[A,,=A,]B,,- | [B,,B,]2 [D,D]2 [C,C]2 [D,,D,]2 | %57
 [G,,G,]2 [_G,,_G,][F,,F,]- [F,,F,][B,,,B,,][C,,C,][D,,D,] | %58
!mf! !>![E,,E,][D,,D,][E,,E,]!>![G,,G,]- [G,,G,][^F,,^F,] !>![G,,G,]2 | %59
 !>![G,,G,][^F,,^F,][G,,G,]!>![=B,,=B,]- [B,,B,][^A,,^A,] !>![B,,B,]2 | %60
 !>![B,,B,][=A,,=A,][B,,B,]!>![E,E]- [E,E][D,D] !>![E,E]2 | %61
 !>![D,D][^C,^C][D,D]!>![G,G]- [G,G][^F,^F] !>![G,G]2 | [A,A]2 [F,F]G,- [G,G]2 [E,E]F,- | %63
 [F,F]2 [D,D]=E,- [E,=E]C,-[C,C]A,,- | [A,,A,]F,,-[F,,F,]D,,- [D,,D,]B,,,-[B,,,B,,]E,,- | %65
 [E,,E,]2 [B,,,B,,]2 [E,,,E,,]2 z2 |:[K:Ab] [A,,A,] [A,A]3 z [E,E]3 | %67
 z [G,,G,]2 [A,,A,]- [A,,A,] [C,C]2 [=D,F,B,=D]- | [D,F,B,D]2 .[F,A,B,=D]2 [B,,B,]2 .[F,A,B,D]2 | %69
 [A,,A,]2 .[F,A,B,=D]2 [F,,F,]2 .[F,A,B,]2 | [B,,B,]2 .[E,G,B,D]2 [G,,G,]2 .[E,G,B,D]2 | %71
 [E,,E,]2 .[E,G,B,D]2 [B,,,B,,]2 [E,,E,]2 | %72
!ped! [A,,,E,,A,,]2 [A,E]2!ped-up!!ped! [CA]2 [A,F]2!ped-up! | %73
!ped! [E,C]2 [D,A,]2!ped-up!!ped! [C,A,]2 [E,,E,]2!ped-up! | [A,,A,] [A,A]3 z [E,E]3 | %75
 z [G,,G,]2 [A,,A,]- [A,,A,] [C,C]2 C,- | [C,G,E]2 .[G,CE]G,,- [G,,=D,=B,]2 .[G,B,=DF]2 | %77
 [C,,C,] [=D,,=D,]2 [E,,E,]- [E,,E,] [G,,G,]3 | [B,,F,A,]2 .[F,A,B,=D]2 [B,,,B,,]2 .[F,A,B,D]2 | %79
 (3B,CD .=D[B,,F,]- [B,,F,]F,[B,,B,]B,,- | [B,,B,]2 .[E,G,B,D]2 [E,,E,]2 .[E,G,B,D]2 | %81
 (3G,A,=A, .B,[B,,F,B,]- [B,,F,B,]E,-[E,B,E] z | z [A,A]3 z [E,E]3 | %83
 z [G,,G,]2 [A,,A,]- [A,,A,] [C,C]2 [=D,F,B,=D]- | [D,F,B,D]2 .[F,A,B,=D]2 [B,,B,]2 .[F,A,B,D]2 | %85
 [A,,A,]2 .[F,A,B,=D]2 [F,,F,]2 .[F,A,B,D]2 | [B,,B,]2 .[E,G,B,D]2 [G,,G,]2 .[E,G,B,D]2 | %87
 [E,,E,]2 .[E,G,B,D]2 [B,,,B,,]D,,-[D,,F,]C,,- | [C,,G,,=E,]2 [G,C]2 z [D,B,]3 | %89
 (3(C,,G,,C, (3=D,=E,G, .C2) [C,,C,]2 | z [D,,D,]3 [F,,F,]2 [A,,A,]2 | %91
 z [_F,,_F,]3 [A,,A,]2 [D,D]2 | z [C,C]3 [A,,A,]2 [_G,,_G,]2 | z [F,,F,]3 [E,E]2 [C,C]2 | %94
 [B,,B,] [C,C]2 [D,D]- [D,D] [F,F]2 [_F,_F] | [E,E]2 [B,,B,]2 [E,,E,]2 [E,G,B,D]2 |1 [A,,A,]8 | %97
 [A,E]3 [E,D]- [E,D]2 [E,G,B,D]2 :|2 [A,,A,]8- | [A,,A,]8 | [A,E]2 [A,E]2- [A,E] [D,A,]3 | %101
 [A,,E,]2 [A,,,A,,]6 |] %102
V:3
 x8 | x8 | x8 | x8 | x8 | x8 | x8 | x8 | x8 | x8 | x8 | x8 | x8 | x8 | x8 |1 x15/2 x/- :|2 x8 |: %17
 x2!8va(! x3!8va)! x3 | x2!8va(! x3!8va)! x3 | x8 | x8 | x2!8va(! x3!8va)! x3 | %22
 x2!8va(! x3!8va)! x3 | x8 | x8 | x8 | x8 | x8 | x8 | x8 | x8 | x8 | x8 | x2!8va(! x3!8va)! x3 | %34
 x2!8va(! x3!8va)! x3 | x8 | x8 | x2!8va(! x3!8va)! x3 | x2!8va(! x3!8va)! x3 | x8 | x8 | x8 | x8 | %43
 x8 | x5!8va(! x3 | x8 | x8 | x4!8va)! x4 |1 x8 :|2 x8 || x8 | x8 | x8 | x8 | x8 | x8 | x8 | x8 | %58
 x8 | x8 | x8 | x8 | x8 | x8 | x8 | x8 |:[K:Ab] x8 | x8 | x8 | x8 | x8 | x8 | x8 | x8 | x8 | x8 | %76
 x!8va(! x7 | x7!8va)! x | x8 | x8 | x8 | x8 | x8 | x8 | x8 | x8 | x8 | x8 | x8 | x8 | x8 | x8 | %92
 x8 | x8 | x8 | x8 |1 x8 | x15/2 x/- :|2 x2!8va(! x6 | x2!8va)! x6 | x8 | x8 |] %102
V:4
 x8 | x8 | x8 | x8 | x8 | x8 | x8 | x8 | x8 | x8 | x8 | x8 | x8 | x8 | x8 |1 x8 :|2 x8 |: %17
 x2!8va(! x3!8va)! x3 | x2!8va(! x3!8va)! x3 | x8 | x8 | x2!8va(! x3!8va)! x3 | %22
 x2!8va(! x3!8va)! x3 | x8 | x8 | x8 | x8 | x8 | x8 | x8 | x8 | x8 | x8 | x2!8va(! x3!8va)! x3 | %34
 x2!8va(! x3!8va)! x3 | x8 | x8 | x2!8va(! x3!8va)! x3 | x2!8va(! x3!8va)! x3 | x8 | x8 | x8 | x8 | %43
 x8 | x5!8va(! x3 | x8 | x8 | x4!8va)! x4 |1 x8 :|2 x8 || x8 | x8 | x8 | x8 | x8 | x8 | x8 | x8 | %58
 x8 | x8 | x8 | x8 | x8 | x8 | x8 | x8 |:[K:Ab] x8 | x8 | x8 | x8 | x8 | x8 | x8 | x8 | x8 | x8 | %76
 x!8va(! x7 | x7!8va)! x | x8 | x8 | x8 | x8 | x8 | x8 | x8 | x8 | x8 | x8 | x8 | x8 | x8 | x8 | %92
 x8 | x8 | x8 | f_fe x e__e x2 |1 x2 [Ae]2- [Ae] [DA]3 | x8 :|2 x2!8va(! [ae']2- [ae'] [da]3 | %99
 [Ae]2!8va)! [Ae]2- [Ae] [DA]3 | x8 | x8 |] %102

